X: 13361
T: Flax In Bloom, The
R: reel
M: 4/4
K: Dmajor
faaf dfaf|g2bg ecAg|fedc dafd|cdef gfge|
faaf afdf|gfgf edBF|A~F3 ABde|faeg fdd2|

